img/header-logo.svg

<svg width="148" height="40" viewBox="0 0 148 40" fill="none" xmlns="http://www.w3.org/2000/svg">
<path d="M57.6049 17.3896C57.2583 16.751 56.7565 16.2676 56.0997 15.9392C55.4611 15.5926 54.704 15.4192 53.8283 15.4192C52.3139 15.4192 51.1008 15.921 50.1885 16.9244C49.2762 17.9096 48.8202 19.2323 48.8202 20.8926C48.8202 22.6622 49.2946 24.0489 50.2432 25.0523C51.2102 26.0375 52.5329 26.5301 54.2114 26.5301C55.3608 26.5301 56.3278 26.2382 57.1123 25.6544C57.9151 25.0705 58.4988 24.2313 58.8638 23.1366H52.9252V19.6884H63.1056V24.0397C62.759 25.2073 62.166 26.293 61.3268 27.2964C60.5058 28.2998 59.4567 29.1117 58.1796 29.732C56.9025 30.3523 55.4611 30.6625 53.8556 30.6625C51.9582 30.6625 50.2614 30.252 48.7654 29.431C47.2876 28.5918 46.1291 27.4332 45.2899 25.9554C44.4688 24.4776 44.0583 22.79 44.0583 20.8926C44.0583 18.9951 44.4688 17.3075 45.2899 15.8297C46.1291 14.3337 47.2876 13.1751 48.7654 12.3541C50.2432 11.5149 51.9308 11.0953 53.8283 11.0953C56.1271 11.0953 58.061 11.6518 59.63 12.7646C61.2173 13.8775 62.2664 15.4192 62.7772 17.3896H57.6049ZM70.3775 17.8001C70.9248 16.9609 71.609 16.3041 72.43 15.8297C73.251 15.3371 74.1632 15.0908 75.1666 15.0908V20.0442H73.8804C72.7128 20.0442 71.8371 20.2997 71.2532 20.8105C70.6693 21.3031 70.3775 22.1788 70.3775 23.4377V30.5257H65.6978V15.255H70.3775V17.8001ZM84.3546 30.7446C82.8585 30.7446 81.5085 30.4253 80.3043 29.7868C79.1184 29.1482 78.1788 28.236 77.4856 27.0501C76.8104 25.8642 76.473 24.4776 76.473 22.8903C76.473 21.3213 76.8196 19.9439 77.5129 18.758C78.2061 17.5538 79.1549 16.6325 80.3591 15.9939C81.5632 15.3553 82.9132 15.0361 84.4093 15.0361C85.9054 15.0361 87.2555 15.3553 88.4596 15.9939C89.6638 16.6325 90.6124 17.5538 91.3058 18.758C91.999 19.9439 92.3457 21.3213 92.3457 22.8903C92.3457 24.4594 91.9899 25.8459 91.2784 27.0501C90.5851 28.236 89.6272 29.1482 88.4049 29.7868C87.2007 30.4253 85.8506 30.7446 84.3546 30.7446ZM84.3546 26.6943C85.2486 26.6943 86.0057 26.3659 86.626 25.7091C87.2645 25.0523 87.5839 24.1127 87.5839 22.8903C87.5839 21.668 87.2737 20.7284 86.6534 20.0716C86.0513 19.4148 85.3033 19.0864 84.4093 19.0864C83.4971 19.0864 82.74 19.4148 82.1379 20.0716C81.5358 20.7102 81.2348 21.6497 81.2348 22.8903C81.2348 24.1127 81.5267 25.0523 82.1105 25.7091C82.7126 26.3659 83.4606 26.6943 84.3546 26.6943ZM116.749 15.255L112.616 30.5257H107.444L105.036 20.6189L102.546 30.5257H97.4009L93.2411 15.255H97.9208L100.083 26.1743L102.655 15.255H107.608L110.208 26.1196L112.343 15.255H116.749ZM126.196 19.1411H123.679V30.5257H118.999V19.1411H117.302V15.255H118.999V14.8171C118.999 12.938 119.537 11.5149 120.614 10.5479C121.69 9.56273 123.268 9.07013 125.348 9.07013C125.694 9.07013 125.95 9.07926 126.114 9.0975V13.0657C125.221 13.0109 124.591 13.1386 124.226 13.4488C123.861 13.759 123.679 14.3154 123.679 15.1182V15.255H126.196V19.1411ZM143.994 15.255L134.416 37.7778H129.38L132.883 30.0057L126.671 15.255H131.898L135.429 24.806L138.931 15.255H143.994Z" fill="white"/>
<path d="M23.1565 12.632C23.1565 8.56277 26.4552 5.26404 30.5244 5.26404H37.8924V12.632C37.8924 16.7012 34.5937 20 30.5244 20C26.4552 20 23.1565 16.7012 23.1565 12.632Z" fill="#FF6D35"/>
<path d="M30.5243 37.6771C26.4551 37.6771 23.1564 34.3784 23.1564 30.3091V22.9412H30.5243C34.5936 22.9412 37.8923 26.2399 37.8923 30.3091C37.8923 34.3784 34.5936 37.6771 30.5243 37.6771Z" fill="#5CC97B"/>
<path d="M20.8348 20.6522C20.8348 12.4754 14.7086 5.84692 7.15146 5.84692V30.0214C7.15146 34.1096 10.2146 37.424 13.9932 37.424C17.7717 37.424 20.8348 34.1096 20.8348 30.0214V20.6522Z" fill="#3D96F4"/>
</svg>

<svg xmlns="http://www.w3.org/2000/svg" width="148" height="40" fill="none"><path fill="#fff" d="M57.605 17.39a3.403 3.403 0 0 0-1.505-1.45c-.639-.347-1.396-.52-2.272-.52-1.514 0-2.727.501-3.64 1.504-.912.986-1.368 2.308-1.368 3.969 0 1.77.475 3.156 1.423 4.16.967.985 2.29 1.477 3.968 1.477 1.15 0 2.117-.292 2.901-.876.803-.584 1.387-1.423 1.752-2.517h-5.939v-3.449h10.18v4.352c-.346 1.167-.939 2.253-1.778 3.256-.821 1.004-1.87 1.816-3.147 2.436-1.277.62-2.719.93-4.324.93-1.898 0-3.595-.41-5.09-1.231a9.086 9.086 0 0 1-3.476-3.476c-.821-1.477-1.232-3.165-1.232-5.062 0-1.898.41-3.585 1.232-5.063a8.844 8.844 0 0 1 3.475-3.476c1.478-.84 3.166-1.259 5.063-1.259 2.3 0 4.233.557 5.802 1.67 1.587 1.112 2.636 2.654 3.147 4.625h-5.172Zm12.773.41a6.044 6.044 0 0 1 2.052-1.97c.821-.493 1.733-.74 2.737-.74v4.954H73.88c-1.167 0-2.043.256-2.627.767-.584.492-.876 1.368-.876 2.627v7.088h-4.68V15.255h4.68V17.8Zm13.977 12.945c-1.496 0-2.847-.32-4.05-.958a7.13 7.13 0 0 1-2.82-2.737c-.675-1.186-1.012-2.572-1.012-4.16 0-1.569.347-2.946 1.04-4.132a7.03 7.03 0 0 1 2.846-2.764c1.204-.639 2.554-.958 4.05-.958s2.846.32 4.05.958a7.032 7.032 0 0 1 2.847 2.764c.693 1.186 1.04 2.563 1.04 4.132 0 1.57-.356 2.956-1.068 4.16a7.039 7.039 0 0 1-2.873 2.737c-1.204.638-2.554.958-4.05.958Zm0-4.05c.894 0 1.65-.33 2.271-.986.638-.657.958-1.596.958-2.819 0-1.222-.31-2.162-.93-2.818-.603-.657-1.35-.986-2.245-.986-.912 0-1.669.329-2.271.986-.602.638-.903 1.578-.903 2.818 0 1.223.292 2.162.876 2.82.602.656 1.35.984 2.244.984Zm32.394-11.44-4.133 15.27h-5.172l-2.408-9.906-2.49 9.907h-5.145l-4.16-15.271h4.68l2.162 10.92 2.572-10.92h4.953l2.6 10.865 2.135-10.865h4.406Zm9.447 3.886h-2.517v11.385h-4.68V19.14h-1.697v-3.886h1.697v-.438c0-1.879.538-3.302 1.615-4.27 1.076-.984 2.654-1.477 4.734-1.477.346 0 .602.01.766.027v3.969c-.893-.055-1.523.073-1.888.383s-.547.866-.547 1.67v.136h2.517v3.886Zm17.798-3.886-9.578 22.523h-5.036l3.503-7.772-6.212-14.751h5.227l3.531 9.551 3.502-9.551h5.063Z"/><path fill="#FF6D35" d="M23.157 12.632a7.368 7.368 0 0 1 7.367-7.368h7.368v7.368a7.368 7.368 0 1 1-14.736 0Z"/><path fill="#5CC97B" d="M30.524 37.677a7.368 7.368 0 0 1-7.368-7.368v-7.368h7.368a7.368 7.368 0 1 1 0 14.736Z"/><path fill="#3D96F4" d="M20.835 20.652c0-8.177-6.126-14.805-13.684-14.805V30.02c0 4.089 3.064 7.403 6.842 7.403 3.779 0 6.842-3.314 6.842-7.403v-9.369Z"/></svg>
